X: 28660
T: Musical Priest, The
R: reel
M: 4/4
K: Bminor
BA|:FBBA BABd|cBAf edBA|FBBA BABd|1 cBAF B2BA:|2 cBAF B2Bc||
|:d2dc dfed|(3cBA eA fAeA|dcBc dbaf|1 edcd B2Bc:|2 edcd B2Bc||
|:dB~B2 bafb|afec ABce|dB~B2 bafb|1 afec B2Bc:|2 afec B2||

